assets/icons/qvision/android.svg

<svg width="24" height="24" viewBox="0 0 24 24" fill="none" xmlns="http://www.w3.org/2000/svg">
<g clip-path="url(#clip0_147_3876)">
<path d="M17.6 9.47997L19.44 6.29997C19.6 5.98997 19.48 5.60997 19.18 5.44997C18.89 5.29997 18.53 5.38997 18.35 5.66997L16.47 8.90997C13.61 7.69997 10.39 7.69997 7.53 8.90997L5.65 5.66997C5.46 5.37997 5.07 5.28997 4.78 5.46997C4.5 5.64997 4.41 6.00997 4.56 6.29997L6.4 9.47997C3.3 11.25 1.28 14.44 1 18H23C22.72 14.44 20.7 11.25 17.6 9.47997ZM7 15.25C6.31 15.25 5.75 14.69 5.75 14C5.75 13.31 6.31 12.75 7 12.75C7.69 12.75 8.25 13.31 8.25 14C8.25 14.69 7.69 15.25 7 15.25ZM17 15.25C16.31 15.25 15.75 14.69 15.75 14C15.75 13.31 16.31 12.75 17 12.75C17.69 12.75 18.25 13.31 18.25 14C18.25 14.69 17.69 15.25 17 15.25Z" fill="#323232"/>
</g>
<defs>
<clipPath id="clip0_147_3876">
<rect width="24" height="24" fill="white"/>
</clipPath>
</defs>
</svg>

<svg xmlns="http://www.w3.org/2000/svg" enable-background="new 0 0 24 24" height="24" viewBox="0 0 24 24" width="24"><g><g><path d="M0,0h24v24H0V0z" fill="none"/></g></g><g><g><path d="M17.6,9.48l1.84-3.18c0.16-0.31,0.04-0.69-0.26-0.85c-0.29-0.15-0.65-0.06-0.83,0.22l-1.88,3.24 c-2.86-1.21-6.08-1.21-8.94,0L5.65,5.67c-0.19-0.29-0.58-0.38-0.87-0.2C4.5,5.65,4.41,6.01,4.56,6.3L6.4,9.48 C3.3,11.25,1.28,14.44,1,18h22C22.72,14.44,20.7,11.25,17.6,9.48z M7,15.25c-0.69,0-1.25-0.56-1.25-1.25 c0-0.69,0.56-1.25,1.25-1.25S8.25,13.31,8.25,14C8.25,14.69,7.69,15.25,7,15.25z M17,15.25c-0.69,0-1.25-0.56-1.25-1.25 c0-0.69,0.56-1.25,1.25-1.25s1.25,0.56,1.25,1.25C18.25,14.69,17.69,15.25,17,15.25z"/></g></g></svg>
